icons/backbonejs/backbonejs-plain.svg

<svg xmlns="http://www.w3.org/2000/svg" viewBox="0 0 128 128"><path fill="#002A41" d="M64 31.124l-49-27.885v121.52199999999999l49-27.885 49 27.885v-121.52199999999999l-49 27.885zm-23.286 32.875l24.369-13.89 24.368 13.89-24.368 13.892-24.369-13.892zm-8.714-34.065l17.433 9.937-17.433 9.938v-19.875zm0 48.257l16.126 9.191-16.126 9.193v-18.384zm65 18.384l-16.127-9.192 16.127-9.192v18.384zm-17.434-56.705l17.434-9.936v19.875l-17.434-9.939z"/></svg>

<svg xmlns="http://www.w3.org/2000/svg" viewBox="0 0 128 128"><path fill="#002A41" d="M64 31.124L15 3.239v121.522l49-27.885 49 27.885V3.239L64 31.124zM40.714 63.999l24.369-13.89 24.368 13.89-24.368 13.892-24.369-13.892zM32 29.934l17.433 9.937L32 49.809V29.934zm0 48.257l16.126 9.191L32 96.575V78.191zm65 18.384l-16.127-9.192L97 78.191v18.384zM79.566 39.87L97 29.934v19.875L79.566 39.87z"/></svg>
